X:1     %Music
T:A Virgin Unspotted
B:Broadwood, Lucy, 1893, English County Songs, Leadenhall Press, London
Z:Lucy Broadwood
F:http://www.folkinfo.org/songs
M:3/4     %Meter
L:1/8     %
K:G
(G3/2D/) |G2 B2 d2 |(d3/2c/) B2 (G3/2A/) |B2 (cB) (AG) | G4
w:A_ vir-gin un-spot--ted, the_ pro-phets_ fore--told, 
 (G3/2D/) |G2 B2 d2 |(d3/2c/) B2 (G3/2A/) |B2 (cB) (AG) |G2 z2
w:Should_ bring forth a Sa--viour which_ now we_ be--hold; 
 (FG) |A2 E2 (AG) |(FE) D2 (GD) |G2 (GA) (BG) | c4
w:To_ be our Re--deem--er from_ death, hell_ and_ sin,
 (BA) |G2 B2 d2 |(d3/2c/) B2 (G3/2A/) |B2 (cB) (AG) | G4
w: Which_ A-dams' trans-gres--sion in--volv-ed_ us_ in. 
 (FG) |A2 E2 (AG) |(FE) D2 (GD) |G2 (GA) (BG) | c4
w:Then_ let us be_ mer--ry, cast_ sor-row_ a--way, 
 (BA) |G2 B2 d2 |(d3/2c/) B2 (G3/2A/) |B2 (cB) (AG) | G4  |]
w:Our_ Sa-viour Christ Je--sus, was_ born on_ this_ day.



%%font Times-Italic
#include "RightHeader.h"
%%vskip 10cm
%%center $2Sets
#include "LeftHeader.h"
%%center This page intentionally blank
#include "RightHeader.h"
%%footer 05/20/14 For use only by Roaring Jelly members
% ---------- set 1 ----------
% Westfork Gals (D) / Planxty George Brabazon (G) / Swinging on a Gate (G)
%%text Set 1
%%vskip -1cm
%%scale .76
